icons/content/deprecated-character-encoding.svg

<!-- This Source Code Form is subject to the terms of the Mozilla Public
   - License, v. 2.0. If a copy of the MPL was not distributed with this
   - file, You can obtain one at http://mozilla.org/MPL/2.0/. -->
<svg xmlns="http://www.w3.org/2000/svg" width="18" height="18" viewBox="0 0 18 18">
  <path d="M14 16H4c-1.1 0-2-.9-2-2V4c0-1.1.9-2 2-2h10c1.1 0 2 .9 2 2v10c0 1.1-.9 2-2 2zm0-10c0-1.7-1.3-3-3-3H7C5.3 3 4 4.3 4 6v4c0 1.7 1.3 3 3 3h4c1.7 0 3-.3 3-2V6zm-3 3.2c.3 0 .6 0 .9-.1.3-.1.5-.2.8-.3v.8c-.3.1-.6.2-.8.3-.2.1-.5.1-.9.1-1 0-1.7-.4-2.1-1.2-.3.4-.6.7-.9.9-.4.2-.8.3-1.2.3-.6 0-1-.2-1.3-.5-.4-.2-.5-.7-.5-1.2 0-.6.2-1 .6-1.3.4-.3 1.1-.5 1.9-.5h.9v-.4c0-.5-.1-.8-.3-1-.1-.3-.4-.4-.8-.4-.5 0-1 .1-1.6.4l-.2-.6c.2-.1.5-.3.9-.4.3 0 .6-.1 1-.1s.8.1 1.1.2c.2.2.5.4.6.8.2-.3.4-.6.7-.7.3-.2.6-.3 1-.3.7 0 1.2.2 1.6.7.4.5.6 1.1.6 1.9v.6H9.4c0 1.4.6 2 1.6 2zM8.5 7.1h-.8c-.7 0-1.1.1-1.4.3-.3.2-.4.5-.4.9 0 .3.1.6.3.7.2.2.4.2.7.2.5 0 .9-.1 1.2-.4.3-.3.4-.7.4-1.3v-.4zm3.6-.6c0-.6-.1-1-.3-1.3-.2-.3-.5-.4-.9-.4s-.7.1-1 .4c-.3.3-.4.7-.5 1.3h2.7z"/>
</svg>

<svg xmlns="http://www.w3.org/2000/svg" width="18" height="18" viewBox="0 0 18 18">
  <path d="M14,16H4c-1.1,0-2-0.9-2-2V4 c0-1.1,0.9-2,2-2h10c1.1,0,2,0.9,2,2v10C16,15.1,15.1,16,14,16z M14,6c0-1.7-1.3-3-3-3H7C5.3,3,4,4.3,4,6v4c0,1.7,1.3,3,3,3h4 c1.7,0,3-0.3,3-2V6z M11,9.2c0.3,0,0.6,0,0.9-0.1c0.3-0.1,0.5-0.2,0.8-0.3v0.8c-0.3,0.1-0.6,0.2-0.8,0.3C11.7,10,11.4,10,11,10 c-1,0-1.7-0.4-2.1-1.2C8.6,9.2,8.3,9.5,8,9.7C7.6,9.9,7.2,10,6.8,10c-0.6,0-1-0.2-1.3-0.5C5.1,9.3,5,8.8,5,8.3c0-0.6,0.2-1,0.6-1.3 c0.4-0.3,1.1-0.5,1.9-0.5l0.9,0V6.1c0-0.5-0.1-0.8-0.3-1C8,4.8,7.7,4.7,7.3,4.7c-0.5,0-1,0.1-1.6,0.4L5.5,4.5C5.7,4.4,6,4.2,6.4,4.1 C6.7,4.1,7,4,7.4,4c0.4,0,0.8,0.1,1.1,0.2C8.7,4.4,9,4.6,9.1,5c0.2-0.3,0.4-0.6,0.7-0.7c0.3-0.2,0.6-0.3,1-0.3 c0.7,0,1.2,0.2,1.6,0.7C12.8,5.2,13,5.8,13,6.6v0.6H9.4C9.4,8.6,10,9.2,11,9.2z M8.5,7.1l-0.8,0C7,7.1,6.6,7.2,6.3,7.4 C6,7.6,5.9,7.9,5.9,8.3c0,0.3,0.1,0.6,0.3,0.7c0.2,0.2,0.4,0.2,0.7,0.2c0.5,0,0.9-0.1,1.2-0.4c0.3-0.3,0.4-0.7,0.4-1.3V7.1z M12.1,6.5c0-0.6-0.1-1-0.3-1.3c-0.2-0.3-0.5-0.4-0.9-0.4c-0.4,0-0.7,0.1-1,0.4C9.6,5.5,9.5,5.9,9.4,6.5H12.1z" />
</svg>
